X:1
T: Johnny Allen's Reel
C:
R:Reel
Q: 232
K:D
M:4/4
L:1/8
|:FG|A=c BG AG FG|Ad dc d2 FG|A=c BG AG FD|DG GF G2 FG|
A=c BG AG FA|d2 ef g2 fg|((3agf) ge df ec|dc AF G2 AB|
=cB Ag fd e^c|dc AB =c2 AB|=cB Ag fd e^c|dc AF G2 AB|
=cB Ag fd e^c|d2 ef g2 fg|((3agf) ge df ec|dc AF G2:|
